X:212
T:11th of July. PDF2.212, The
B:Playford’s Dancing Master, Vol 2, 1713-28
Z:vmp.Ruairidh Greig 2015 www.village-music-project.org.uk
T:Eleventh of July,The. PDF2.212
M:6/8
L:1/8
Q:3/8=100
K:D
(fdf) (eac)|d2B,B,2g|f>ed (cAc)|d2DD3:||:(FDF) (AdA)|
B2G,G,2B|(^GEG) (BeB)|c2A, (ege)|f>ed (cAc)|d2DD3:|
W:Each Strain is to be play'd twice over.
W:The first Couple Sett and cast off below the second Couple. This to the first Strain play'd once.
W:Then Sett and cast off below the third Couple. This to the first Strain play'd twice. Then lead
W:through to the Top. This to the second Strain play'd once. Then cast off, and Right and Left quite
W:round and turn. This to the second Strain play'd twice.

